packages/calcite-ui-icons/icons/browser-plus-32.svg

<?xml version="1.0" encoding="UTF-8"?><svg id="icons" xmlns="http://www.w3.org/2000/svg" viewBox="0 0 32 32"><defs><style>.cls-1{fill:none;}</style></defs><rect class="cls-1" width="32" height="32"/><path d="M5,26h4v.99902h-4v4.00098h-1v-4.00098H0v-.99902h4v-4h1v4ZM30,5v23H10.99982c0-.00037.00018-.00061.00018-.00098v-.99902h18V11H8v13h-1v-13H3v9h-1V5h28ZM29,6H3v4h26v-4ZM27,7h-1v1h1v-1Z"/></svg>

<svg xmlns="http://www.w3.org/2000/svg" viewBox="0 0 32 32"><path fill="none" d="M0 0h32v32H0z"/><path d="M5 26h4v.999H5V31H4v-4.001H0V26h4v-4h1v4zM30 5v23H11v-1h18V11H8v13H7V11H3v9H2V5h28zm-1 1H3v4h26V6zm-2 1h-1v1h1V7z"/></svg>
